X: 2211
Q: "Reel."
M: C
L: 1/8
K: Gm
ud |\
u^f |\
gagd gagd | fgfc A2(FA) |
gagd gagd | gaba g2(d=e) |\
fgaf g=efd | cAfc A2(FA) |\



